printer-pos-alert-outline.svg

<svg fill="currentColor" viewBox="0 0 24 24"><path d="M15 15h-4v-2h4zm3-3v7H2v-7c0-1.1.9-2 2-2h1V4h10v6h1a2 2 0 0 1 2 2M7 10h6V6H7zm9 2H4v5h12zm4 5h2v-2h-2zm0-10v6h2V7z"/></svg>

<svg  viewBox="0 0 24 24" fill="currentColor"><path  d="M15 15H11V13H15V15M18 12V19H2V12C2 10.9 2.9 10 4 10H5V4H15V10H16C17.11 10 18 10.9 18 12M7 10H13V6H7V10M16 12H4V17H16V12M20 17H22V15H20V17M20 7V13H22V7H20Z"/></svg>
